X: 911
T: Alick C McGregor
R: reel
M: 4/4
K: Dmajor
d|AFEF D3d|AFED F3d|AFEF D3B|AFdF E3d|
AFEF D3d|AFED F3B|ABdA B<dAB|F<AEF D3||
d|B2 AB AFdA|B2 AB F3d|B2 AB AFdA|B2 AF E3d|
B2 AB AFdA|B2 AB F3B|ABdA B<dAB|F<AEF D3||
d|D3F D3F|DFEG FAFd|D3F D3B|AFdF E3d|
D3F D3F|DFEG FAFd|BdAB ABFA|F<AEF D3||
d|AFFA BGGB|AFdA F3d|AFFA BGGB|AFdF E3d|
AFFA BGGB|AFdA F3B|ABdA B<dAB|F<AEF D3||

